!!!OTL: 118. Das Maedchen aus der Fremde. / Volksmaessige Umbildung.
!!!ODT: 1815 (um)
!!!ARE: Europa, Mitteleuropa, Deutschland
!!!SCT: B0118A
!!!TXL: @@DE
!!!YEM: Copyright 1995, estate of Helmut Schaffrath.
**kern	**text
*ICvox	*
*Ivox	*
*M4/4	*
*met(c)	*
*clefG2	*
*k[f#]	*
*G:	*
{8d	Jn
8e	einem
8f#	.
=1	=1
4.g	Thal
8b	bei
4.b	ar-
8dd	-men
=2	=2
8ddL	Hir-
8ccJ	.
4a	-ten
8r}	.
{8d	⁊c.
8e	.
8f#	.
=3	=3
4g	.
8bL	.
8gJ	.
8ddL	.
8ccJ	.
8aL	.
8f#J	.
=4	=4
2g	.
8r}	.
{8d	.
8e	.
8f#	.
=5	=5
4.g	.
8b	.
4.b	.
8dd	.
=6	=6
8ddL	.
8ccJ	.
4a	.
8r}	.
{8d	.
8e	.
8f#	.
=7	=7
4g	.
8bL	.
8gJ	.
8ddL	.
8ccJ	.
8aL	.
8f#J	.
=8	=8
2g	.
8r}	.
{8dd	.
8dd	.
8dd	.
=9	=9
8ccL	.
8bJ	.
8aL	.
8gJ	.
8gL	.
8f#J	.
8eL	.
8dJ	.
=10	=10
8eL	.
8gJ	.
4g	.
8r}	.
{8dd	.
8dd	.
8dd	.
=11	=11
(8ddq	.
4cc)	.
4a	.
(8ccqq	.
4b)	.
4g	.
=12	=12
2dd	.
8r}	.
{8cc	.
8a	.
8f#	.
=13	=13
4.g	.
8b	.
4.b	.
8dd	.
=14	=14
8ddL	.
8bJ	.
4e	.
8r}	.
{8b	.
8cc	.
8ee	.
=15	=15
8eeL	.
8ddJ	.
8bL	.
8gJ	.
8ddL	.
8ccJ	.
8aL	.
8f#J	.
=16	=16
2g	.
8r	.
==	==
!!!AGN: Ballade, Romanze
!!!GTL: Balladen und Romanzen
!!!ONB: ESAC (Essen Associative Code) Database: BOEHME
!!!AMT: simple quadruple
!!!AIN: vox
!!!EED: Helmut Schaffrath
!!!EEV: 1.0
!!Handſchriftl. um 1815.
!!@@COMMENT:"Aus Lisko's Handſchr. 1814 20. in Erk's Nachlaß gefunden.
!!Dieſe Notation iſt intereſſant, weil man durch Vergleich mit dem vorangehenden Original
!!erſiebt: wie das Voll die Kunſtweiſen durch Vereinſachung ſich mundgerecht macht."
!!@@END:
!!Text: F. Schiller
!!!URL-scan: https://archive.org/details/BoehmeVtLieder1895/page/n125/mode/2up
!!!ENC: Anna Maria Matuszewska
!!!EEV: 2024/18/06
*-	*-
